logos/kickstarter.svg

<?xml version="1.0" encoding="UTF-8"?>
<svg width="512px" height="55px" viewBox="0 0 512 55" version="1.1" xmlns="http://www.w3.org/2000/svg" xmlns:xlink="http://www.w3.org/1999/xlink" preserveAspectRatio="xMidYMid">
    <g fill="#05CE78">
        <path d="M48.0837333,41.464 C48.0837333,48.0202667 42.6112,53.5136 35.7936,53.4250667 C32.0256,53.4250667 28.168,51.6533333 25.8357333,48.2864 L23.3237333,44.7424 C22.1578667,49.8810667 17.6725333,53.4250667 11.9312,53.4250667 C5.2928,53.4250667 0,48.1093333 0,41.5525333 L0,11.8725333 C0,5.31573333 5.2032,0 11.9312,0 C17.7621333,0 22.3370667,3.8096 23.4138667,9.03733333 L26.2842667,5.13866667 C28.6170667,1.94933333 32.3845333,0.0885333333 36.1525333,0.0885333333 C42.6112,0.0885333333 48.0837333,5.13866667 48.0837333,11.6949333 C48.0837333,14.1754667 47.3658667,16.6565333 45.8410667,18.6944 L40.0997333,26.5797333 L45.8410667,34.4650667 C47.3658667,36.5909333 48.0837333,38.9834667 48.0837333,41.464 Z M64.6010667,0 C71.7989333,0 77.5568,5.85706667 77.4666667,12.7797333 L77.4666667,40.6464 C77.4666667,47.5685333 71.7989333,53.4261333 64.5109333,53.4261333 C57.4032,53.4261333 51.6453333,47.6570667 51.6453333,40.6464 L51.6453333,12.7797333 C51.6453333,5.85706667 57.4032,0 64.6010667,0 Z M127.332267,38.7429333 C127.332267,47.3226667 120.1616,53.4261333 108.653867,53.4261333 C93.2512,53.4261333 81.92,42.0154667 81.92,26.7130667 C81.92,11.4106667 93.2512,0 108.653867,0 C120.1616,0 127.332267,6.10346667 127.332267,14.6832 C127.332267,20.4325333 124.499733,24.3248 118.834133,26.7130667 C124.499733,29.1013333 127.332267,33.0816 127.332267,38.7429333 Z M179.867733,41.464 C179.867733,48.0202667 174.3856,53.5136 167.6448,53.4250667 C163.869867,53.4250667 160.005333,51.6533333 157.668267,48.2864 L155.152,44.7424 C153.983467,49.8810667 149.4896,53.4250667 143.7376,53.4250667 C137.086933,53.4250667 131.784533,48.1093333 131.784533,41.5525333 L131.784533,11.8725333 C131.784533,5.31573333 136.997333,0 143.7376,0 C149.579733,0 154.163733,3.8096 155.242133,9.03733333 L158.028267,5.13866667 C160.3648,1.94933333 164.139733,0.0885333333 167.914133,0.0885333333 C174.3856,0.0885333333 179.867733,5.13866667 179.867733,11.6949333 C179.867733,14.1754667 179.1488,16.6565333 177.6208,18.6944 L171.8688,26.5797333 L177.6208,34.4650667 C179.1488,36.5909333 179.867733,38.9834667 179.867733,41.464 Z M225.28,36.9856 C225.28,47.616 217.070933,54.3168 203.240533,54.3168 C189.1424,54.3168 182.5392,49.4922667 182.5392,41.6309333 C182.5392,36.1813333 186.7328,32.6976 192.710933,32.6976 L192.800533,32.6976 L189.588267,29.7488 C185.5728,26.0858667 182.806933,22.4234667 182.806933,17.0629333 C182.806933,6.61066667 190.480533,0 203.597333,0 C216.981867,0 223.3168,4.73493333 223.3168,12.6858667 C223.3168,17.4202667 220.104533,20.6368 215.2864,21.3514667 L218.587733,24.2992 C222.6032,27.8730667 225.28,31.6250667 225.28,36.9856 Z M261.5888,42.296 C261.5888,48.8848 255.968533,54.3168 248.742933,54.3168 C241.784,54.3168 236.163733,48.8848 236.163733,42.296 L236.163733,23.8634667 C230.186667,23.5072 225.28,18.6101333 225.28,12.3770667 C225.28,5.8768 230.4544,0.890666667 236.788267,0.890666667 L260.9648,0.890666667 C267.2992,0.890666667 272.473067,5.96586667 272.473067,12.3770667 C272.473067,18.6101333 267.5664,23.5968 261.5888,23.8634667 L261.5888,42.296 Z M292.881067,44.1386667 C289.843733,50.4186667 285.5552,53.4261333 280.3728,53.4261333 C270.990933,53.4261333 264.200533,44.8464 268.4,35.2048 L279.389867,9.7296 C282.16,3.4496 286.180267,0 292.970667,0 C299.850667,0 303.871467,3.4496 306.552,9.7296 L317.541867,35.2048 C321.651733,44.8464 314.9504,53.4261333 305.479467,53.4261333 C300.208533,53.4261333 295.919467,50.4186667 292.881067,44.1386667 Z M322.3376,14.1578667 C322.3376,5.43146667 327.003733,0.890666667 335.3488,0.890666667 L350.873067,0.890666667 C360.294933,0.890666667 367.653333,8.01386667 367.653333,17.1856 C367.653333,22.1717333 365.5888,26.2677333 362.1792,28.8501333 L366.845333,36.2405333 C368.101333,38.1994667 368.64,40.3370667 368.64,42.5626667 C368.64,49.152 363.4352,54.3168 356.8848,54.3168 C352.846933,54.3168 348.898667,52.2688 346.655467,48.5285333 L345.398933,46.3024 C343.8736,51.0218667 339.656,54.3168 334.272,54.3168 C327.7216,54.3168 322.3376,48.7957333 322.3376,42.1178667 L322.3376,14.1578667 Z M405.860267,42.296 C405.860267,48.8848 400.339733,54.3168 392.9488,54.3168 C386.003733,54.3168 380.3936,48.8848 380.3936,42.296 L380.3936,23.8634667 C374.427733,23.5072 369.530133,18.6101333 369.530133,12.3770667 C369.530133,5.8768 374.694933,0.890666667 381.017067,0.890666667 L405.2368,0.890666667 C411.558933,0.890666667 416.7232,5.96586667 416.7232,12.3770667 C416.7232,18.6101333 411.826133,23.5968 405.860267,23.8634667 L405.860267,42.296 Z M462.135467,44.0789333 C462.135467,49.8261333 457.534933,54.4053333 451.960533,54.3152 L433.380267,54.3152 C424.885867,54.3152 420.285333,49.8261333 420.285333,41.0266667 L420.285333,14.1792 C420.285333,5.46986667 424.885867,0.890666667 433.380267,0.890666667 L451.960533,0.890666667 C457.534933,0.890666667 462.135467,5.46986667 462.135467,11.2165333 C462.135467,16.424 458.9504,20.1952 454.349333,21.0933333 C456.473067,22.44 457.623467,24.6848 457.623467,27.6474667 C457.623467,30.6106667 456.384533,32.8554667 454.349333,34.2026667 C458.861867,35.1002667 462.135467,38.9616 462.135467,44.0789333 Z M465.6976,14.1578667 C465.6976,5.43146667 470.274133,0.890666667 478.7088,0.890666667 L494.233067,0.890666667 C503.654933,0.890666667 511.0128,8.01386667 511.0128,17.1856 C511.0128,22.1717333 508.9488,26.2677333 505.5392,28.8501333 L510.205333,36.2405333 C511.461333,38.1994667 512,40.3370667 512,42.5626667 C512,49.152 506.7952,54.3168 500.2448,54.3168 C496.206933,54.3168 492.258133,52.2688 490.014933,48.5285333 L488.758933,46.3024 C487.2336,51.0218667 483.016,54.3168 477.632,54.3168 C471.081067,54.3168 465.6976,48.7957333 465.6976,42.1178667 L465.6976,14.1578667 L465.6976,14.1578667 Z"></path>
    </g>
</svg>

<svg width="512" height="55" xmlns="http://www.w3.org/2000/svg" preserveAspectRatio="xMidYMid">
	<path d="M48.084 41.464c0 6.556-5.473 12.05-12.29 11.961-3.768 0-7.626-1.772-9.958-5.139l-2.512-3.544c-1.166 5.14-5.651 8.683-11.393 8.683C5.293 53.425 0 48.11 0 41.553v-29.68C0 5.316 5.203 0 11.931 0c5.831 0 10.406 3.81 11.483 9.037l2.87-3.898c2.333-3.19 6.1-5.05 9.869-5.05 6.458 0 11.93 5.05 11.93 11.606 0 2.48-.717 4.962-2.242 7L40.1 26.58l5.741 7.885c1.525 2.126 2.243 4.518 2.243 6.999ZM64.6 0C71.8 0 77.557 5.857 77.467 12.78v27.866c0 6.923-5.668 12.78-12.956 12.78-7.108 0-12.866-5.769-12.866-12.78V12.78C51.645 5.857 57.403 0 64.601 0Zm62.731 38.743c0 8.58-7.17 14.683-18.678 14.683-15.403 0-26.734-11.41-26.734-26.713C81.92 11.411 93.251 0 108.654 0c11.508 0 18.678 6.103 18.678 14.683 0 5.75-2.832 9.642-8.498 12.03 5.666 2.388 8.498 6.369 8.498 12.03Zm52.536 2.721c0 6.556-5.482 12.05-12.223 11.961-3.775 0-7.64-1.772-9.977-5.139l-2.516-3.544c-1.169 5.14-5.662 8.683-11.414 8.683-6.651 0-11.953-5.316-11.953-11.872v-29.68C131.785 5.316 136.997 0 143.738 0c5.842 0 10.426 3.81 11.504 9.037l2.786-3.898c2.337-3.19 6.112-5.05 9.886-5.05 6.472 0 11.954 5.05 11.954 11.606 0 2.48-.72 4.962-2.247 7l-5.752 7.885 5.752 7.885c1.528 2.126 2.247 4.518 2.247 6.999Zm45.412-4.478c0 10.63-8.21 17.33-22.04 17.33-14.098 0-20.7-4.824-20.7-12.685 0-5.45 4.193-8.933 10.17-8.933h.09l-3.212-2.95c-4.015-3.662-6.781-7.325-6.781-12.685C182.807 6.61 190.48 0 203.597 0c13.385 0 19.72 4.735 19.72 12.686 0 4.734-3.212 7.95-8.03 8.665l3.3 2.948c4.016 3.574 6.693 7.326 6.693 12.687Zm36.309 5.31c0 6.589-5.62 12.02-12.846 12.02-6.959 0-12.58-5.431-12.58-12.02V23.863c-5.976-.356-10.883-5.253-10.883-11.486 0-6.5 5.174-11.486 11.508-11.486h24.177c6.334 0 11.508 5.075 11.508 11.486 0 6.233-4.907 11.22-10.884 11.486v18.433Zm31.292 1.843c-3.037 6.28-7.326 9.287-12.508 9.287-9.382 0-16.172-8.58-11.973-18.221L279.39 9.73C282.16 3.45 286.18 0 292.97 0c6.88 0 10.901 3.45 13.582 9.73l10.99 25.475c4.11 9.641-2.592 18.221-12.063 18.221-5.27 0-9.56-3.007-12.598-9.287Zm29.457-29.981c0-8.727 4.666-13.267 13.01-13.267h15.525c9.422 0 16.78 7.123 16.78 16.295 0 4.986-2.064 9.082-5.474 11.664l4.666 7.39c1.256 1.96 1.795 4.097 1.795 6.323 0 6.589-5.205 11.754-11.755 11.754-4.038 0-7.986-2.048-10.23-5.788l-1.256-2.227c-1.525 4.72-5.743 8.015-11.127 8.015-6.55 0-11.934-5.521-11.934-12.2v-27.96Zm83.522 28.138c0 6.589-5.52 12.02-12.911 12.02-6.945 0-12.555-5.431-12.555-12.02V23.863c-5.966-.356-10.864-5.253-10.864-11.486 0-6.5 5.165-11.486 11.487-11.486h24.22a11.457 11.457 0 0 1 11.486 11.486c0 6.233-4.897 11.22-10.863 11.486v18.433Zm56.275 1.783c0 5.747-4.6 10.326-10.174 10.236h-18.58c-8.495 0-13.096-4.489-13.096-13.288V14.179c0-8.71 4.6-13.288 13.095-13.288h18.58c5.575 0 10.175 4.579 10.175 10.326 0 5.207-3.185 8.978-7.786 9.876 2.124 1.347 3.274 3.592 3.274 6.554 0 2.964-1.238 5.208-3.274 6.556 4.513.897 7.786 4.759 7.786 9.876Zm3.563-29.921c0-8.727 4.576-13.267 13.01-13.267h15.525c9.422 0 16.78 7.123 16.78 16.295 0 4.986-2.064 9.082-5.474 11.664l4.666 7.39c1.256 1.96 1.795 4.097 1.795 6.323 0 6.589-5.205 11.754-11.755 11.754-4.038 0-7.987-2.048-10.23-5.788l-1.256-2.227c-1.525 4.72-5.743 8.015-11.127 8.015-6.55 0-11.934-5.521-11.934-12.2v-27.96Z" fill="#05CE78"/>
</svg>
